packages/match-logos/mono/svg/compucom.svg

<svg fill="none" height="25" viewBox="0 0 155 25" width="155" xmlns="http://www.w3.org/2000/svg"><path clip-rule="evenodd" d="m62.3247 3.46928.1533.43368c.0767.2551.1278.5102.1789.7653 1.0732-.73979 2.3509-1.12245 3.6541-1.09694 3.0664 0 6.3372 1.96429 6.3628 7.52548 0 5.0766-2.4787 8.1123-6.6439 8.1123-1.0732 0-2.1209-.2551-3.0664-.7143v5.5102l-4.2929.9949v-16.96429c.0511-1.12245-.0512-2.27041-.2811-3.36735l-.1278-.53571zm17.7851-.07653v10.00005c0 1.9387.3833 2.4744 1.7121 2.4744.9966-.0765 1.9165-.5867 2.4787-1.4285v-10.30615l4.2929-.71429v11.14794c0 1.7857.69 2.347.7411 2.3214l.5877.4847-.6388.4082-2.6065 1.6072-.281-.1786c-.5111-.3317-.92-.7653-1.2266-1.301-1.201.9183-2.6831 1.403-4.1908 1.352-1.7887 0-3.3219-.5612-4.2163-1.5561-.7155-.7653-.9965-1.8112-.9965-3.6735v-9.92346zm-55.8341.12755c4.5741 0 7.4105 3.03572 7.436 7.9337 0 4.7449-2.8875 7.8061-7.3593 7.8061-4.4719 0-7.3338-3.0612-7.3338-7.8571 0-4.79596 2.8364-7.8827 7.2571-7.8827zm92.4773 0c4.549 0 7.385 3.03572 7.411 7.9337 0 4.7449-2.862 7.8061-7.334 7.8061s-7.334-3.0612-7.334-7.8571c0-4.79596 2.837-7.8827 7.257-7.8827zm-107.83486-3.265303c1.78876-.051021 3.57746.459183 5.05956 1.454083l.4344.33163-2.0954 2.70408-.4088-.28061c-.8688-.58673-1.91652-.91837-2.96421-.89286-1.35433-.02551-2.63199.66327-3.34749 1.83674-.63883.94388-.91992 2.29592-.91992 4.23469 0 1.93875.20443 3.11225.68994 4.05615.68994 1.403 2.17204 2.2704 3.75635 2.1683 1.12433.0511 2.22313-.3061 3.09193-.9949l.4089-.2806 2.172 2.6531-.4855.3316c-1.6099 1.0715-3.5264 1.6327-5.49397 1.5817-2.42757.102-4.75293-.8674-6.4139-2.6531-1.558756-1.8112-2.3764637-4.1327-2.299804-6.53061-.0766597-1.91327.383301-3.80103 1.328774-5.4847 1.5332-2.65306 4.39518-4.285714 7.48714-4.234693zm92.47786 0c1.814-.051021 3.577.459183 5.059 1.454083l.435.33163-2.096 2.70408-.408-.28061c-.869-.58673-1.917-.91837-2.965-.89286-1.354-.02551-2.6317.66327-3.3471 1.83674-.6133.94388-.92 2.29592-.92 4.23469 0 1.93875.2044 3.11225.69 4.05615.6899 1.403 2.1721 2.2704 3.7561 2.1683 1.125.0511 2.223-.3061 3.092-.9949l.435-.2806 2.172 2.6531-.486.3316c-1.61 1.0715-3.526 1.6327-5.494 1.5817-2.4274.0765-4.7784-.8674-6.4393-2.6531-1.5588-1.8112-2.3765-4.1327-2.2998-6.53061-.0767-1.91327.3833-3.80103 1.3287-5.4847 1.5588-2.65306 4.4208-4.285714 7.4874-4.234693zm29.361 3.163263.204.30612c.23.33164.383.71429.486 1.09694 1.073-.81632 2.376-1.27551 3.73-1.30102 1.457-.07653 2.888.61225 3.757 1.78572 1.252-1.12245 2.836-1.76021 4.523-1.78572 2.989 0 4.548 1.58164 4.548 4.59184v10.73976h-4.344v-10.17854c0-1.58163-.383-1.58163-1.073-1.58163-.792 0-1.636.40817-2.734 1.32653v10.45914h-4.242v-10.07648c0-1.58164-.358-1.63266-1.15-1.63266-.997.05102-1.917.43368-2.658 1.09694v10.6122h-4.318v-10.56118c0-1.58163-.154-2.60204-.486-3.29082l-.281-.58673zm-93.0913 0 .2044.30612c.23.33164.3833.71429.4855 1.09694 1.0733-.81632 2.3765-1.27551 3.7308-1.30102 1.4821-.07653 2.8875.61225 3.7819 1.78572 1.2266-1.12245 2.8364-1.76021 4.523-1.78572 2.9641 0 4.5485 1.58164 4.5229 4.59184v10.73976h-4.3441v-10.17854c0-1.58163-.2811-1.58163-1.0732-1.58163-.7922 0-1.6354.40817-2.7342 1.32653v10.45914h-4.2419v-10.07648c0-1.58164-.3577-1.63266-1.1499-1.63266-.9966.05102-1.9165.43368-2.6575 1.09694v10.6122h-4.3186v-10.56118c0-1.58163-.1277-2.60204-.4855-3.29082l-.281-.58673zm113.7893 11.30104.155.006c1.024.0794 1.812.9379 1.812 1.9583 0 1.0714-.868 1.9643-1.967 1.9643-1.073 0-1.968-.8674-1.968-1.9643 0-1.0715.869-1.9643 1.968-1.9643zm0 .3316-.152.0068c-.848.076-1.509.784-1.509 1.6514 0 .9183.741 1.6581 1.661 1.6581s1.661-.7398 1.661-1.6581c0-.9184-.741-1.6582-1.661-1.6582zm-.102.5612c.255 0 .485.0511.69.1786.127.1276.204.2806.204.4592 0 .2551-.179.4847-.434.5357l.064.0083c.146.0383.252.2085.319.4764.025.1786.077.3571.153.5357h-.383c-.077-.1786-.128-.3571-.153-.5357v-.0255c-.026-.2296-.23-.3827-.46-.3572h-.256v.9439h-.358v-2.1683c.205-.0255.409-.0511.614-.0511zm-.026.2551h-.255v.7653h.255c.281 0 .537-.1275.537-.3826 0-.1786-.154-.3827-.537-.3827zm-127.0257-9.00506c-1.3033 0-2.5043.53571-2.5043 4.33676 0 4.3622 1.3544 4.7194 2.6065 4.7194 1.0732.0255 2.5553-.3572 2.5553-4.4643 0-4.05615-1.3543-4.59186-2.6575-4.59186zm92.4517 0c-1.303 0-2.504.53571-2.504 4.33676 0 4.3622 1.354 4.7194 2.607 4.7194 1.098 0 2.555-.4592 2.555-4.4388 0-4.03063-1.329-4.61736-2.658-4.61736zm-51.0808.28061c-1.0222 0-2.0187.40817-2.7342 1.12245v6.5051c.6388.5612 1.4565.8929 2.3253.9439 1.3544 0 2.7342-.5102 2.7342-4.3112 0-3.54596-.8943-4.26025-2.3253-4.26025z" fill="#1f304c" fill-rule="evenodd"/></svg>

<svg width="155" height="25" viewBox="0 0 155 25" fill="none" xmlns="http://www.w3.org/2000/svg">
<path fill-rule="evenodd" clip-rule="evenodd" d="M62.3247 3.46928L62.478 3.90296C62.5547 4.15806 62.6058 4.41316 62.6569 4.66826C63.7301 3.92847 65.0078 3.54581 66.311 3.57132C69.3774 3.57132 72.6482 5.53561 72.6738 11.0968C72.6738 16.1734 70.1951 19.2091 66.0299 19.2091C64.9567 19.2091 63.909 18.954 62.9635 18.4948V24.005L58.6706 24.9999V8.03561C58.7217 6.91316 58.6194 5.7652 58.3895 4.66826L58.2617 4.13255L62.3247 3.46928ZM80.1098 3.39275V13.3928C80.1098 15.3315 80.4931 15.8672 81.8219 15.8672C82.8185 15.7907 83.7384 15.2805 84.3006 14.4387V4.13255L88.5935 3.41826V14.5662C88.5935 16.3519 89.2835 16.9132 89.3346 16.8876L89.9223 17.3723L89.2835 17.7805L86.677 19.3877L86.396 19.2091C85.8849 18.8774 85.476 18.4438 85.1694 17.9081C83.9684 18.8264 82.4863 19.3111 80.9786 19.2601C79.1899 19.2601 77.6567 18.6989 76.7623 17.704C76.0468 16.9387 75.7658 15.8928 75.7658 14.0305V4.10704L80.1098 3.39275ZM24.2757 3.5203C28.8498 3.5203 31.6862 6.55602 31.7117 11.454C31.7117 16.1989 28.8242 19.2601 24.3524 19.2601C19.8805 19.2601 17.0186 16.1989 17.0186 11.403C17.0186 6.60704 19.855 3.5203 24.2757 3.5203ZM116.753 3.5203C121.302 3.5203 124.138 6.55602 124.164 11.454C124.164 16.1989 121.302 19.2601 116.83 19.2601C112.358 19.2601 109.496 16.1989 109.496 11.403C109.496 6.60704 112.333 3.5203 116.753 3.5203ZM8.91814 0.254997C10.7069 0.203976 12.4956 0.71418 13.9777 1.70908L14.4121 2.04071L12.3167 4.74479L11.9079 4.46418C11.0391 3.87745 9.99138 3.54581 8.94369 3.57132C7.58936 3.54581 6.3117 4.23459 5.5962 5.40806C4.95737 6.35194 4.67628 7.70398 4.67628 9.64275C4.67628 11.5815 4.88071 12.755 5.36622 13.6989C6.05616 15.1019 7.53826 15.9693 9.12257 15.8672C10.2469 15.9183 11.3457 15.5611 12.2145 14.8723L12.6234 14.5917L14.7954 17.2448L14.3099 17.5764C12.7 18.6479 10.7835 19.2091 8.81593 19.1581C6.38836 19.2601 4.063 18.2907 2.40203 16.505C0.843274 14.6938 0.0255663 12.3723 0.102226 9.97439C0.0255663 8.06112 0.485527 6.17336 1.431 4.48969C2.9642 1.83663 5.82618 0.203976 8.91814 0.254997ZM101.396 0.254997C103.21 0.203976 104.973 0.71418 106.455 1.70908L106.89 2.04071L104.794 4.74479L104.386 4.46418C103.517 3.87745 102.469 3.54581 101.421 3.57132C100.067 3.54581 98.7893 4.23459 98.0739 5.40806C97.4606 6.35194 97.1539 7.70398 97.1539 9.64275C97.1539 11.5815 97.3583 12.755 97.8439 13.6989C98.5338 15.1019 100.016 15.9693 101.6 15.8672C102.725 15.9183 103.823 15.5611 104.692 14.8723L105.127 14.5917L107.299 17.2448L106.813 17.5764C105.203 18.6479 103.287 19.2091 101.319 19.1581C98.8916 19.2346 96.5406 18.2907 94.8797 16.505C93.3209 14.6938 92.5032 12.3723 92.5799 9.97439C92.5032 8.06112 92.9632 6.17336 93.9086 4.48969C95.4674 1.83663 98.3294 0.203976 101.396 0.254997ZM130.757 3.41826L130.961 3.72438C131.191 4.05602 131.344 4.43867 131.447 4.82132C132.52 4.005 133.823 3.54581 135.177 3.5203C136.634 3.44377 138.065 4.13255 138.934 5.30602C140.186 4.18357 141.77 3.54581 143.457 3.5203C146.446 3.5203 148.005 5.10194 148.005 8.11214V18.8519H143.661V8.67336C143.661 7.09173 143.278 7.09173 142.588 7.09173C141.796 7.09173 140.952 7.4999 139.854 8.41826V18.8774H135.612V8.80092C135.612 7.21928 135.254 7.16826 134.462 7.16826C133.465 7.21928 132.545 7.60194 131.804 8.2652V18.8774H127.486V8.31622C127.486 6.73459 127.332 5.71418 127 5.0254L126.719 4.43867L130.757 3.41826ZM37.6657 3.41826L37.8701 3.72438C38.1001 4.05602 38.2534 4.43867 38.3556 4.82132C39.4289 4.005 40.7321 3.54581 42.0864 3.5203C43.5685 3.44377 44.9739 4.13255 45.8683 5.30602C47.0949 4.18357 48.7047 3.54581 50.3913 3.5203C53.3554 3.5203 54.9398 5.10194 54.9142 8.11214V18.8519H50.5701V8.67336C50.5701 7.09173 50.289 7.09173 49.4969 7.09173C48.7047 7.09173 47.8615 7.4999 46.7627 8.41826V18.8774H42.5208V8.80092C42.5208 7.21928 42.1631 7.16826 41.3709 7.16826C40.3743 7.21928 39.4544 7.60194 38.7134 8.2652V18.8774H34.3948V8.31622C34.3948 6.73459 34.2671 5.71418 33.9093 5.0254L33.6283 4.43867L37.6657 3.41826ZM151.455 14.7193L151.61 14.7253C152.634 14.8047 153.422 15.6632 153.422 16.6836C153.422 17.755 152.554 18.6479 151.455 18.6479C150.382 18.6479 149.487 17.7805 149.487 16.6836C149.487 15.6121 150.356 14.7193 151.455 14.7193ZM151.455 15.0509L151.303 15.0577C150.455 15.1337 149.794 15.8417 149.794 16.7091C149.794 17.6274 150.535 18.3672 151.455 18.3672C152.375 18.3672 153.116 17.6274 153.116 16.7091C153.116 15.7907 152.375 15.0509 151.455 15.0509ZM151.353 15.6121C151.608 15.6121 151.838 15.6632 152.043 15.7907C152.17 15.9183 152.247 16.0713 152.247 16.2499C152.247 16.505 152.068 16.7346 151.813 16.7856L151.877 16.7939C152.023 16.8322 152.129 17.0024 152.196 17.2703C152.221 17.4489 152.273 17.6274 152.349 17.806H151.966C151.889 17.6274 151.838 17.4489 151.813 17.2703V17.2448C151.787 17.0152 151.583 16.8621 151.353 16.8876H151.097V17.8315H150.739V15.6632C150.944 15.6377 151.148 15.6121 151.353 15.6121ZM151.327 15.8672H151.072V16.6325H151.327C151.608 16.6325 151.864 16.505 151.864 16.2499C151.864 16.0713 151.71 15.8672 151.327 15.8672ZM24.3013 6.86214C22.998 6.86214 21.797 7.39785 21.797 11.1989C21.797 15.5611 23.1514 15.9183 24.4035 15.9183C25.4767 15.9438 26.9588 15.5611 26.9588 11.454C26.9588 7.39785 25.6045 6.86214 24.3013 6.86214ZM116.753 6.86214C115.45 6.86214 114.249 7.39785 114.249 11.1989C114.249 15.5611 115.603 15.9183 116.856 15.9183C117.954 15.9183 119.411 15.4591 119.411 11.4795C119.411 7.44887 118.082 6.86214 116.753 6.86214ZM65.6722 7.14275C64.65 7.14275 63.6535 7.55092 62.938 8.2652V14.7703C63.5768 15.3315 64.3945 15.6632 65.2633 15.7142C66.6177 15.7142 67.9975 15.204 67.9975 11.403C67.9975 7.85704 67.1032 7.14275 65.6722 7.14275Z" fill="#1F304C"/>
</svg>
